!!!!SEGMENT: Ver2017-Recordare_Domine.krn
!!!id: Ver2017
!!!AGN: Motet
!!!SCT: Slim (1972)
!!!voices: 5
!!!COM: Philippe Verdelot
!!!OTL: Recordare, Domine
**kern	**kern	**kern	**kern	**kern
*part5	*part4	*part3	*part2	*part1
*staff5	*staff4	*staff3	*staff2	*staff1
*I"Bassus	*I"Tenor II	*I"Tenor I	*I"Altus	*I"Superius
*I'B	*I'T. II	*I'T. I	*I'A	*I'S
*clefF4	*clefGv2	*clefGv2	*clefGv2	*clefGv2
*k[]	*k[]	*k[]	*k[]	*k[]
*C:	*C:	*C:	*C:	*C:
*M2/1	*M2/1	*M2/1	*M2/1	*M2/1
*met(C|)	*met(C|)	*met(C|)	*met(C|)	*met(C|)
!!section: Prima pars: Recordare, Domine
!!!OMD: Prima pars: Recordare, Domine
=1	=1	=1	=1	=1
0r	0r	0r	0r	0A
=2	=2	=2	=2	=2
0r	0r	0r	1r	1A
.	.	.	[1A	[1c
=3	=3	=3	=3	=3
0r	0r	0r	1A]	2c]
.	.	.	.	2A
.	.	.	1A	2.c
.	.	.	.	4d
=4	=4	=4	=4	=4
0AA	1r	0r	1.c	2e
.	.	.	.	2A
.	[1E	.	.	2A
.	.	.	2A	[2c
=5	=5	=5	=5	=5
1AA	1E]	[0e	2.c	4c]
.	.	.	.	4B
.	.	.	.	1A
.	.	.	4d	.
[1C	1E	.	1e	.
.	.	.	.	2G
=6	=6	=6	=6	=6
2C]	1.A	0e]	0E	1.c
2AA	.	.	.	.
2.C	.	.	.	.
.	2E	.	.	2c
4D	.	.	.	.
=7	=7	=7	=7	=7
0E	2.G	0e	0r	1B
.	4A	.	.	.
.	2B	.	.	1G
.	2c	.	.	.
=8	=8	=8	=8	=8
1.D	0d	1f	1.A	1r
.	.	1f	.	[1A
2D	.	.	2B	.
=9	=9	=9	=9	=9
[0AA	0r	[0e	1c	2A]
.	.	.	.	2B
.	.	.	1A	1c
=10	=10	=10	=10	=10
1AA]	0r	0e_	1.c	1A
1r	.	.	.	[1c
.	.	.	2B	.
=11	=11	=11	=11	=11
1.AA	0r	0e_	2A	2c]
.	.	.	4G	2B
.	.	.	4F	.
.	.	.	[1E	1A
2BB	.	.	.	.
=12	=12	=12	=12	=12
1C	1r	0e]	1E]	1G
1AA	[1E	.	1r	1r
=13	=13	=13	=13	=13
1.C	2E]	0r	1r	0r
.	2F	.	.	.
.	1G	.	[1E	.
2BB	.	.	.	.
=14	=14	=14	=14	=14
1AA	2C	0r	2E]	0r
.	2c	.	2F	.
[1GG	4B	.	1G	.
.	4A	.	.	.
.	4B	.	.	.
.	4c	.	.	.
=15	=15	=15	=15	=15
1GG]	2.d	0r	1D	1.B
.	4c	.	.	.
1r	2d	.	[1G	.
.	2e	.	.	2c
=16	=16	=16	=16	=16
0r	2B	1r	2G]	1d
.	1d	.	2F	.
.	.	1g	1E	1G
.	[2c	.	.	.
=17	=17	=17	=17	=17
1GG	2c]	1g	1D	1d
.	2B	.	.	.
1C	2G	1e	1r	2.c
.	[2A	.	.	.
.	.	.	.	4B
=18	=18	=18	=18	=18
1.D	4A]	0f	1r	2.A
.	4G	.	.	.
.	4F	.	.	.
.	4E	.	.	4G
.	2D	.	2r	1A
2D	4d	.	2D	.
.	4c	.	.	.
=19	=19	=19	=19	=19
2.E	4B	0e	1G	2G
.	4A	.	.	.
.	4G	.	.	2G
4D	4F	.	.	.
2C	1E	.	[1A	1c
2AA	.	.	.	.
=20	=20	=20	=20	=20
1D	2r	0r	1A]	1.d
.	1D	.	.	.
2GG	.	.	1B	.
2GG	[2G	.	.	2d
=21	=21	=21	=21	=21
1C	2G]	1r	1c	1e
.	1A	.	.	.
[1D	.	[1f	1r	[1d
.	2A	.	.	.
=22	=22	=22	=22	=22
2D]	1B-X	1f]	1r	1d]
2E	.	.	.	.
2.F	2.A	[1f	2r	1c
.	.	.	2F	.
4E	4G	.	.	.
=23	=23	=23	=23	=23
2D	2A	1f]	2.F	1d
2BB-X	2B-i	.	.	.
.	.	.	4G	.
2.F	2.A	[1f	4A	1c
.	.	.	4B	.
.	.	.	[2c	.
4E	4G	.	.	.
=24	=24	=24	=24	=24
1D	1F	1f]	2c]	1d
.	.	.	2B	.
1C	[1G	1e	2c	1r
.	.	.	4B	.
.	.	.	4A	.
=25	=25	=25	=25	=25
1r	1G]	0d	1B	1r
1D	2r	.	2r	2r
.	2F	.	2A	2d
=26	=26	=26	=26	=26
1D	1F	0r	1A	1d
1GG	1G	.	1B	1d
=27	=27	=27	=27	=27
1C	2.E	0r	1c	1e
.	4F	.	.	.
1C	2G	.	1c	1e
.	[2A	.	.	.
=28	=28	=28	=28	=28
0D	4A]	0r	0A	0d
.	4G	.	.	.
.	4F	.	.	.
.	4E	.	.	.
.	1F	.	.	.
=29	=29	=29	=29	=29
1AA	1E	1r	1A	1c
2r	2r	[1f	2r	2r
2D	2F	.	2A	2d
=30	=30	=30	=30	=30
1D	1F	1f]	1A	1d
1GG	1G	1d	1B	1d
=31	=31	=31	=31	=31
1C	2.E	0e	1G	1c
.	4F	.	.	.
1C	2G	.	1E	2c
.	[2A	.	.	2c
=32	=32	=32	=32	=32
0D	4A]	0d	2.F	1A
.	4G	.	.	.
.	4F	.	.	.
.	4E	.	4G	.
.	1F	.	[1A	1r
=33	=33	=33	=33	=33
1AA	0E	0c	1A]	1r
2r	.	.	1r	2G
2C	.	.	.	2A
=34	=34	=34	=34	=34
2D	2r	0r	0r	2B
2E	2G	.	.	1c
2F	2A	.	.	.
2D	2B	.	.	2F
=35	=35	=35	=35	=35
2E	2.c	0r	2r	2G
2.F	.	.	2c	2.A
.	4B	.	.	.
.	2A	.	2d	.
4E	.	.	.	4B
2C	2G	.	2e	[2c
=36	=36	=36	=36	=36
1D	1F	1r	2f	2c]
.	.	.	2d	2B
1C	1G	1g	2e	2c
.	.	.	[2c	[2e
=37	=37	=37	=37	=37
0r	1r	1g	4c]	2e]
.	.	.	4B	.
.	.	.	2G	2d
.	2r	1e	1A	2.c
.	2c	.	.	.
.	.	.	.	8BL
.	.	.	.	8AJ
=38	=38	=38	=38	=38
0r	1d	0g	1G	2B
.	.	.	.	2d
.	1B	.	2r	1d
.	.	.	2d	.
=39	=39	=39	=39	=39
2r	1G	0r	1d	1B
2G	.	.	.	.
1G	1r	.	1B	2G
.	.	.	.	2g
=40	=40	=40	=40	=40
1E	0r	1g	1G	1g
1C	.	1g	[1c	1e
=41	=41	=41	=41	=41
1.F	2r	1.a	2c]	2c
.	1F	.	2B	2c
.	.	.	2A	2d
2E	2G	2g	[2c	2e
=42	=42	=42	=42	=42
1D	2A	1f	4c]	2f
.	.	.	8BL	.
.	.	.	8AJ	.
.	2F	.	2B	2d
1C	2G	1e	1c	1e
.	[2A	.	.	.
=43	=43	=43	=43	=43
1D	4A]	0f	0A	1d
.	4G	.	.	.
.	4F	.	.	.
.	4E	.	.	.
1D	1F	.	.	2r
.	.	.	.	2d
=44	=44	=44	=44	=44
0GG	1G	0d	2B	1d
.	.	.	2G	.
.	2r	.	1G	1B
.	2G	.	.	.
=45	=45	=45	=45	=45
2r	1G	[0e	1E	1G
2G	.	.	.	.
1G	1E	.	2C	2r
.	.	.	[2c	2g
=46	=46	=46	=46	=46
1E	1C	0e]	2c]	1g
.	.	.	2B	.
1C	[1c	.	2A	1e
.	.	.	2G	.
=47	=47	=47	=47	=47
1.F	2c]	[0Al	2F	2c
.	2B	.	1F	2c
.	2A	.	.	2d
2E	2G	.	2G	2e
=48	=48	=48	=48	=48
1D	1F	0A_	2A	2f
.	.	.	2B	2d
1C	2E	.	1c	[1e
.	[2A	.	.	.
=49	=49	=49	=49	=49
1D	4A]	0A_	1F	2e]
.	4G	.	.	.
.	4F	.	.	4d
.	4E	.	.	4c
1D	1F	.	1r	1d
=50	=50	=50	=50	=50
0AA	1E	0A_	1.c	0e
.	[1c	.	.	.
.	.	.	2B	.
=51	=51	=51	=51	=51
1.F	2c]	0A_	2A	1r
.	2B	.	2G	.
.	2A	.	2F	1c
2E	2G	.	[2c	.
=52	=52	=52	=52	=52
1D	1F	0A_	2c]	1d
.	.	.	2B	.
1C	1E	.	2A	[1e
.	.	.	2G	.
=53	=53	=53	=53	=53
1D	0F	0A_	2F	2e]
.	.	.	2D	4d
.	.	.	.	4c
1D	.	.	2.A	1d
.	.	.	4B	.
=	=	=	=	=
00AA	00E	00A]	00c#X	00e
=||	=||	=||	=||	=||
*M2/1	*M2/1	*M2/1	*M2/1	*M2/1
*met(C|)	*met(C|)	*met(C|)	*met(C|)	*met(C|)
!!section: Secunda pars: Adjuva nos Deus
!!!OMD: Secunda pars: Adjuva nos Deus
0E	0r	0r	0r	0r
=54	=54	=54	=54	=54
1G	0E	0r	0r	0r
1G	.	.	.	.
=55	=55	=55	=55	=55
1.C	1G	0r	0r	0E
.	1G	.	.	.
2D	.	.	.	.
=56	=56	=56	=56	=56
0E	1.C	0r	0r	1G
.	.	.	.	1G
.	2D	.	.	.
=57	=57	=57	=57	=57
1r	1E	0B	0r	1G
1E	[1e	.	.	1G
=58	=58	=58	=58	=58
1G	1e]	0B	0E	1G
1G	1e	.	.	2r
.	.	.	.	[2g
=59	=59	=59	=59	=59
1GG	2.d	0B	1G	2g]
.	.	.	.	2g
.	4c	.	.	.
1GG	1B	.	1G	1g
=60	=60	=60	=60	=60
0AA	1A	1c	1.C	1.e
.	[1E	1c	.	.
.	.	.	2D	2f
=61	=61	=61	=61	=61
0r	2E]	[0B	0E	[0g
.	2F	.	.	.
.	[1G	.	.	.
=62	=62	=62	=62	=62
[0GG	0G]	0B]	2r	0g]
.	.	.	2D	.
.	.	.	2E	.
.	.	.	2D	.
=63	=63	=63	=63	=63
1GG]	2r	[0B	1.G	0r
.	2D	.	.	.
1GG	2E	.	.	.
.	2D	.	2F	.
=64	=64	=64	=64	=64
0GG	1.G	0B]	1E	1r
.	.	.	1D	1G
.	2F	.	.	.
=65	=65	=65	=65	=65
1.C	2.E	0r	2r	1G
.	.	.	1C	.
.	4D	.	.	.
.	4E	.	.	1G
.	4F	.	.	.
2BB	[2G	.	2D	.
=66	=66	=66	=66	=66
1AA	2G]	0r	2E	1.c
.	2F#i	.	4C	.
.	.	.	4D	.
1GG	1G	.	4E	.
.	.	.	4F	.
.	.	.	[2G	2B
=67	=67	=67	=67	=67
2r	1D	0r	2G]	1A
2D	.	.	2F#i	.
1E	2r	.	1G	1G
.	2G	.	.	.
=68	=68	=68	=68	=68
1F	1A	1r	1D	0r
[1G	2B	1d	1r	.
.	[2B	.	.	.
=69	=69	=69	=69	=69
2G]	4B]	1d	1r	0r
.	4A	.	.	.
2GG	4B	.	.	.
.	4c	.	.	.
1GG	2d	1B	1D	.
.	[2G	.	.	.
=70	=70	=70	=70	=70
2.C	4G]	0c	1E	1G
.	4F	.	.	.
.	4E	.	.	.
4BB	4D	.	.	.
2AA	1C	.	1F	1A
2AA	.	.	.	.
=71	=71	=71	=71	=71
1GG	0D	0B	1.G	1B
[1GG	.	.	.	[1d
.	.	.	2D	.
=72	=72	=72	=72	=72
2GG]	1.d	0r	1D	2d]
2GG	.	.	.	2B
[1GG	.	.	[1G	1B
.	2c	.	.	.
=73	=73	=73	=73	=73
1GG]	2B	1r	2G]	1.g
.	2A	.	2F	.
[1C	2G	[1c	2E	.
.	[2G	.	2D	2f
=74	=74	=74	=74	=74
2C]	2G]	1c]	2.C	2e
2BB	2G	.	.	2d
.	.	.	4D	.
2.AA	1A	[1c	1E	2.c
4GG	.	.	.	4B
=75	=75	=75	=75	=75
2FF	0r	1c]	2F	2A
2.C	.	.	2.E	1G
.	.	1c	.	.
4BB	.	.	4D	.
4AA	.	.	4C	4F#i
4GG	.	.	4BB	4E
=76	=76	=76	=76	=76
2AA	1r	1c	2C	2F#i
2AA	.	.	2C	2F#i
1GG	2r	1B	2D	1G
.	2d	.	2D	.
=77	=77	=77	=77	=77
2r	2c	0A	2.F	0r
1D	1f	.	.	.
.	.	.	4G	.
.	.	.	4A	.
.	.	.	4B	.
2C	[2e	.	[2c	.
=78	=78	=78	=78	=78
1F	4e]	0r	2c]	2r
.	8dL	.	.	.
.	8cJ	.	.	.
.	2d	.	4B	1A
.	.	.	4A	.
1E	2e	.	2c	.
.	2E	.	2B	2G
=79	=79	=79	=79	=79
2r	2F	0r	1A	1c
1AA	2.E	.	.	.
.	.	.	1r	1B
.	4F	.	.	.
2GG	2G	.	.	.
=80	=80	=80	=80	=80
2.C	2E	0r	2r	1r
.	1A	.	1E	.
8BBL	.	.	.	.
8AAJ	.	.	.	.
1BB	.	.	.	2r
.	2G#i	.	2D	[2d
=81	=81	=81	=81	=81
2AA	0A	1r	2F	2d]
1AA	.	.	2E	2c
.	.	[1c	2r	1f
2FF	.	.	[2A	.
=82	=82	=82	=82	=82
1C	2r	1c]	2A]	1e
.	2E	.	2G	.
1FF	2F	1A	1c	1r
.	2A	.	.	.
=83	=83	=83	=83	=83
0GG	2.G	0B	2B	1r
.	.	.	1G	.
.	8FL	.	.	.
.	8EJ	.	.	.
.	2.D	.	.	[1d
.	.	.	2G	.
.	4E	.	.	.
=84	=84	=84	=84	=84
2.D	1F	0A	2.A	2d]
.	.	.	.	2d
4C	.	.	4B	.
2AA	1E	.	[1c	2.e
[2C	.	.	.	.
.	.	.	.	4f
=85	=85	=85	=85	=85
2C]	2r	0G	1c]	0g
4BB	1E	.	.	.
4AA	.	.	.	.
1GG	.	.	1B	.
.	2D	.	.	.
=86	=86	=86	=86	=86
2r	2.F	0r	1A	0f
1D	.	.	.	.
.	4G	.	.	.
.	1A	.	1d	.
2D	.	.	.	.
=87	=87	=87	=87	=87
2.E	1G	0r	2B	0e
.	.	.	2.G	.
4F	.	.	.	.
1G	1E	.	.	.
.	.	.	4A	.
.	.	.	[2B	.
=88	=88	=88	=88	=88
1E	1G	1r	2B]	1e
.	.	.	4A	.
.	.	.	4G	.
2D	1F	1d	[1A	[1f
2D	.	.	.	.
=89	=89	=89	=89	=89
1F	1D	1d	1A]	1f]
1E	1E	1B	1G	[1g
=90	=90	=90	=90	=90
0D	1.F	0d	0A	2g]
.	.	.	.	4f#i
.	.	.	.	4e
.	.	.	.	1f#i
.	2D	.	.	.
=91	=91	=91	=91	=91
1GG	1D	0r	1G	[0g
[1GG	2r	.	[1B	.
.	[2D	.	.	.
=92	=92	=92	=92	=92
1GG]	2D]	1d	1B]	0g_
.	2D	.	.	.
1GG	[1G	1d	1B	.
=93	=93	=93	=93	=93
1.C	2G]	1.e	1.c	0g]
.	2E	.	.	.
.	1G	.	.	.
2GG	.	2d	2B	.
=94	=94	=94	=94	=94
1AA	1E	1c	1A	1r
2E	2r	1B	1G	1e
2E	2G	.	.	.
=95	=95	=95	=95	=95
2C	2G	0c	0r	2e
1F	1A	.	.	1f
2C	2G	.	.	2e
=96	=96	=96	=96	=96
1D	1F	0A	1r	1d
1AA	2.E	.	2r	2.c
.	.	.	2E	.
.	4F	.	.	4d
=97	=97	=97	=97	=97
1r	1G	[0B	2E	2e
.	.	.	1G	2d
[1GG	1D	.	.	1d
.	.	.	2F	.
=98	=98	=98	=98	=98
1GG]	0G	0B]	1E	1r
1GG	.	.	1D	1d
=99	=99	=99	=99	=99
1.C	2G	[0El	1r	2c
.	1c	.	.	1e
.	.	.	1G	.
2GG	[2B	.	.	2d
=100	=100	=100	=100	=100
1AA	4B]	0E_	1E	1c
.	4A	.	.	.
.	1A	.	.	.
1EE	.	.	[1e	1B
.	2G#i	.	.	.
=101	=101	=101	=101	=101
0AA	0A	0E_	2e]	2.c
.	.	.	2d	.
.	.	.	.	4d
.	.	.	1c	1e
=102	=102	=102	=102	=102
00EEl	00G#Xl	00E]	00Bl	00el
==	==	==	==	==
*-	*-	*-	*-	*-
!!!system-decoration: [*]
!!!RDF**kern: i = editorial accidental
!!!RDF**kern: l = terminal long
!!!ENC: Benjamin Ory
!!!END: 2021/6/5
!!!EED: Benjamin Ory
!!!EEV: 2021/06/05
!!!YEC: Copyright 2021 Benjamin Ory, All Rights Reserved
!!!ONB: Translated from MusicXML on 2021/06/05
